flaticon/delivery/delivery-truck.svg

<svg xmlns="http://www.w3.org/2000/svg" width="32" height="32" viewBox="0 0 24 24">
    <path d="M4.800781 16.601562C4.359375 16.601562 4 16.960938 4 17.398438 4 17.839844 4.359375 18.199219 4.800781 18.199219 5.238281 18.199219 5.601562 17.839844 5.601562 17.398438 5.601562 16.960938 5.238281 16.601562 4.800781 16.601562zM19.199219 16.601562C18.761719 16.601562 18.398438 16.960938 18.398438 17.398438 18.398438 17.839844 18.761719 18.199219 19.199219 18.199219 19.640625 18.199219 20 17.839844 20 17.398438 20 16.960938 19.640625 16.601562 19.199219 16.601562zM18 13.800781L17.199219 13.800781C16.960938 13.800781 16.800781 13.960938 16.800781 14.199219 16.800781 14.441406 16.960938 14.601562 17.199219 14.601562L18 14.601562C18.238281 14.601562 18.398438 14.441406 18.398438 14.199219 18.398438 13.960938 18.238281 13.800781 18 13.800781zM18 13.800781"/>
    <path d="M 23.480469 12.960938 L 21.921875 12.320312 L 20.921875 8.320312 C 20.800781 7.761719 20.320312 7.398438 19.761719 7.398438 L 16 7.398438 L 16 5 C 16 4.558594 15.640625 4.199219 15.199219 4.199219 L 0.800781 4.199219 C 0.359375 4.199219 0 4.558594 0 5 L 0 17 C 0 17.441406 0.359375 17.800781 0.800781 17.800781 L 2.433594 17.800781 C 2.625 18.929688 3.617188 19.800781 4.800781 19.800781 C 5.984375 19.800781 6.972656 18.929688 7.164062 17.800781 L 16.835938 17.800781 C 17.027344 18.929688 18.015625 19.800781 19.199219 19.800781 C 20.382812 19.800781 21.375 18.929688 21.566406 17.800781 L 23.199219 17.800781 C 23.640625 17.800781 24 17.441406 24 17 L 24 13.71875 C 24 13.359375 23.800781 13.078125 23.480469 12.960938 Z M 0.800781 5 L 15.199219 5 L 15.199219 8.199219 C 15.199219 10.199219 13.601562 11.800781 11.601562 11.800781 L 0.800781 11.800781 Z M 4.800781 19 C 3.921875 19 3.199219 18.28125 3.199219 17.398438 C 3.199219 16.519531 3.921875 15.800781 4.800781 15.800781 C 5.679688 15.800781 6.398438 16.519531 6.398438 17.398438 C 6.398438 18.28125 5.679688 19 4.800781 19 Z M 19.199219 19 C 18.320312 19 17.601562 18.28125 17.601562 17.398438 C 17.601562 16.519531 18.320312 15.800781 19.199219 15.800781 C 20.078125 15.800781 20.800781 16.519531 20.800781 17.398438 C 20.800781 18.28125 20.078125 19 19.199219 19 Z M 23.199219 17 L 21.566406 17 C 21.429688 16.203125 20.902344 15.539062 20.1875 15.214844 C 20.167969 15.207031 20.152344 15.199219 20.136719 15.191406 C 20.128906 15.1875 20.117188 15.183594 20.109375 15.179688 C 20.082031 15.167969 20.054688 15.160156 20.027344 15.148438 C 20.023438 15.144531 20.015625 15.144531 20.007812 15.140625 C 19.976562 15.128906 19.949219 15.121094 19.917969 15.109375 C 19.914062 15.109375 19.90625 15.105469 19.898438 15.105469 C 19.867188 15.09375 19.839844 15.085938 19.808594 15.078125 C 19.800781 15.078125 19.792969 15.074219 19.785156 15.074219 C 19.757812 15.066406 19.726562 15.058594 19.695312 15.050781 C 19.6875 15.050781 19.679688 15.046875 19.671875 15.046875 C 19.640625 15.042969 19.613281 15.035156 19.582031 15.03125 C 19.574219 15.03125 19.5625 15.027344 19.554688 15.027344 C 19.527344 15.023438 19.496094 15.019531 19.46875 15.015625 C 19.457031 15.015625 19.445312 15.011719 19.4375 15.011719 C 19.40625 15.007812 19.378906 15.007812 19.347656 15.003906 C 19.339844 15.003906 19.328125 15.003906 19.320312 15.003906 C 19.277344 15 19.238281 15 19.199219 15 C 19.160156 15 19.121094 15 19.082031 15.003906 C 19.070312 15.003906 19.0625 15.003906 19.050781 15.003906 C 19.023438 15.007812 18.992188 15.007812 18.960938 15.011719 C 18.953125 15.011719 18.941406 15.015625 18.933594 15.015625 C 18.902344 15.019531 18.875 15.023438 18.84375 15.027344 C 18.835938 15.027344 18.828125 15.03125 18.816406 15.03125 C 18.789062 15.035156 18.757812 15.042969 18.726562 15.046875 C 18.71875 15.046875 18.710938 15.050781 18.703125 15.050781 C 18.671875 15.058594 18.644531 15.066406 18.613281 15.074219 C 18.605469 15.074219 18.597656 15.078125 18.59375 15.078125 C 18.5625 15.085938 18.53125 15.09375 18.5 15.105469 C 18.492188 15.105469 18.488281 15.109375 18.480469 15.109375 C 18.449219 15.121094 18.421875 15.128906 18.390625 15.140625 C 18.386719 15.144531 18.378906 15.144531 18.371094 15.148438 C 18.34375 15.160156 18.316406 15.167969 18.292969 15.179688 C 18.28125 15.183594 18.273438 15.1875 18.261719 15.191406 C 18.246094 15.199219 18.230469 15.207031 18.214844 15.214844 C 17.5 15.539062 16.96875 16.203125 16.835938 17 L 7.164062 17 C 7.03125 16.203125 6.5 15.539062 5.785156 15.214844 C 5.769531 15.207031 5.753906 15.199219 5.738281 15.191406 C 5.726562 15.1875 5.71875 15.183594 5.707031 15.179688 C 5.679688 15.167969 5.65625 15.160156 5.628906 15.148438 C 5.621094 15.144531 5.613281 15.144531 5.609375 15.140625 C 5.578125 15.128906 5.546875 15.121094 5.519531 15.109375 C 5.511719 15.109375 5.507812 15.105469 5.5 15.105469 C 5.46875 15.09375 5.4375 15.085938 5.40625 15.078125 C 5.402344 15.078125 5.394531 15.074219 5.386719 15.074219 C 5.355469 15.066406 5.324219 15.058594 5.296875 15.050781 C 5.289062 15.050781 5.28125 15.046875 5.273438 15.046875 C 5.242188 15.042969 5.210938 15.035156 5.183594 15.03125 C 5.171875 15.03125 5.164062 15.027344 5.15625 15.027344 C 5.125 15.023438 5.097656 15.019531 5.066406 15.015625 C 5.058594 15.015625 5.046875 15.011719 5.035156 15.011719 C 5.007812 15.007812 4.976562 15.007812 4.949219 15.003906 C 4.9375 15.003906 4.929688 15.003906 4.917969 15.003906 C 4.878906 15 4.839844 15 4.800781 15 C 4.761719 15 4.71875 15 4.679688 15.003906 C 4.671875 15.003906 4.660156 15.003906 4.652344 15.003906 C 4.621094 15.007812 4.59375 15.007812 4.5625 15.011719 C 4.554688 15.011719 4.542969 15.015625 4.53125 15.015625 C 4.503906 15.019531 4.472656 15.023438 4.445312 15.027344 C 4.4375 15.027344 4.425781 15.03125 4.417969 15.03125 C 4.386719 15.035156 4.359375 15.042969 4.328125 15.046875 C 4.320312 15.046875 4.3125 15.050781 4.304688 15.050781 C 4.273438 15.058594 4.242188 15.066406 4.210938 15.074219 C 4.207031 15.074219 4.199219 15.078125 4.191406 15.078125 C 4.160156 15.085938 4.128906 15.09375 4.101562 15.105469 C 4.09375 15.105469 4.085938 15.109375 4.082031 15.109375 C 4.050781 15.121094 4.019531 15.128906 3.992188 15.140625 C 3.984375 15.144531 3.976562 15.144531 3.96875 15.148438 C 3.945312 15.160156 3.917969 15.167969 3.890625 15.179688 C 3.882812 15.183594 3.871094 15.1875 3.863281 15.191406 C 3.847656 15.199219 3.828125 15.207031 3.8125 15.214844 C 3.097656 15.539062 2.570312 16.203125 2.433594 17 L 0.800781 17 L 0.800781 12.601562 L 11.601562 12.601562 C 14.039062 12.601562 16 10.640625 16 8.199219 L 19.761719 8.199219 C 19.960938 8.199219 20.121094 8.359375 20.160156 8.519531 L 21.070312 12.199219 L 18.121094 12.199219 C 17.839844 12.199219 17.601562 11.960938 17.601562 11.679688 L 17.601562 9.800781 C 17.601562 9.558594 17.441406 9.398438 17.199219 9.398438 C 16.960938 9.398438 16.800781 9.558594 16.800781 9.800781 L 16.800781 11.679688 C 16.800781 12.398438 17.398438 13 18.121094 13 L 21.441406 13 L 23.199219 13.679688 Z M 23.199219 17"/>
    <path d="M2.398438 7L13.601562 7C13.839844 7 14 6.839844 14 6.601562 14 6.359375 13.839844 6.199219 13.601562 6.199219L2.398438 6.199219C2.160156 6.199219 2 6.359375 2 6.601562 2 6.839844 2.160156 7 2.398438 7zM2.398438 8.601562L12.800781 8.601562C13.039062 8.601562 13.199219 8.441406 13.199219 8.199219 13.199219 7.960938 13.039062 7.800781 12.800781 7.800781L2.398438 7.800781C2.160156 7.800781 2 7.960938 2 8.199219 2 8.441406 2.160156 8.601562 2.398438 8.601562zM12.398438 9.800781C12.398438 9.558594 12.238281 9.398438 12 9.398438L2.398438 9.398438C2.160156 9.398438 2 9.558594 2 9.800781 2 10.039062 2.160156 10.199219 2.398438 10.199219L12 10.199219C12.238281 10.199219 12.398438 10.039062 12.398438 9.800781zM12.398438 9.800781"/>
</svg>

<svg xmlns="http://www.w3.org/2000/svg" width="32" height="32" viewBox="0 0 24 24">
    <path d="M4.8 16.602c-.44 0-.8.359-.8.796 0 .442.36.801.8.801.438 0 .802-.36.802-.8a.804.804 0 0 0-.801-.797zm0 0M19.2 16.602c-.438 0-.802.359-.802.796 0 .442.364.801.801.801.442 0 .801-.36.801-.8a.801.801 0 0 0-.8-.797zm0 0M18 13.8h-.8c-.24 0-.4.16-.4.4 0 .241.16.402.4.402h.8c.238 0 .398-.16.398-.403 0-.238-.16-.398-.398-.398zm0 0"/>
    <path d="M23.48 12.96l-1.558-.64-1-4a1.165 1.165 0 0 0-1.16-.922H16V5c0-.441-.36-.8-.8-.8H.8c-.44 0-.8.359-.8.8v12c0 .441.36.8.8.8h1.634a2.412 2.412 0 0 0 2.367 2 2.408 2.408 0 0 0 2.363-2h9.672c.191 1.13 1.18 2 2.363 2a2.412 2.412 0 0 0 2.367-2H23.2c.442 0 .801-.359.801-.8v-3.281c0-.36-.2-.64-.52-.758zM.8 5h14.4v3.2c0 2-1.598 3.6-3.598 3.6H.8zm4 14a1.606 1.606 0 0 1-1.6-1.602c0-.878.722-1.597 1.6-1.597.88 0 1.598.719 1.598 1.597 0 .883-.718 1.602-1.597 1.602zm14.4 0a1.603 1.603 0 0 1-1.598-1.602c0-.878.718-1.597 1.597-1.597.88 0 1.602.719 1.602 1.597 0 .883-.723 1.602-1.602 1.602zm4-2h-1.634a2.412 2.412 0 0 0-1.43-1.809c-.007-.004-.019-.007-.027-.011-.027-.012-.054-.02-.082-.032-.004-.003-.011-.003-.02-.007-.03-.012-.058-.02-.089-.032-.004 0-.012-.004-.02-.004a.787.787 0 0 0-.09-.027c-.007 0-.015-.004-.023-.004-.027-.008-.058-.015-.09-.023-.008 0-.015-.004-.023-.004-.031-.004-.059-.012-.09-.016-.008 0-.02-.004-.027-.004l-.086-.011c-.012 0-.024-.004-.032-.004-.03-.004-.058-.004-.09-.008h-.027C19.277 15 19.238 15 19.2 15c-.04 0-.079 0-.118.004h-.031c-.028.004-.059.004-.09.008-.008 0-.02.004-.027.004l-.09.011c-.008 0-.016.004-.028.004-.027.004-.058.012-.09.016-.007 0-.015.004-.023.004l-.09.023c-.008 0-.015.004-.02.004-.03.008-.062.016-.093.027-.008 0-.012.004-.02.004-.03.012-.058.02-.09.032-.003.004-.011.004-.019.007-.027.012-.055.02-.078.032l-.031.011-.047.024A2.403 2.403 0 0 0 16.835 17h-9.67a2.403 2.403 0 0 0-1.38-1.785l-.047-.024-.031-.011-.078-.032c-.008-.003-.016-.003-.02-.007-.03-.012-.062-.02-.09-.032-.007 0-.011-.004-.019-.004-.031-.011-.063-.02-.094-.027-.004 0-.011-.004-.02-.004l-.09-.023c-.007 0-.015-.004-.023-.004-.03-.004-.062-.012-.09-.016-.011 0-.019-.004-.027-.004l-.09-.011c-.007 0-.02-.004-.03-.004-.028-.004-.06-.004-.087-.008h-.031C4.878 15 4.84 15 4.801 15c-.04 0-.082 0-.121.004h-.028c-.03.004-.058.004-.09.008-.007 0-.019.004-.03.004l-.087.011c-.008 0-.02.004-.027.004-.031.004-.059.012-.09.016-.008 0-.016.004-.023.004l-.094.023c-.004 0-.012.004-.02.004-.03.008-.062.016-.09.027-.007 0-.015.004-.019.004-.031.012-.062.02-.09.032-.008.004-.015.004-.023.007-.024.012-.051.02-.078.032l-.028.011-.05.024A2.412 2.412 0 0 0 2.433 17H.802v-4.398h10.8A4.389 4.389 0 0 0 16 8.199h3.762c.199 0 .36.16.398.32l.91 3.68h-2.949a.527.527 0 0 1-.52-.52V9.802c0-.242-.16-.403-.402-.403-.238 0-.398.16-.398.403v1.879c0 .718.597 1.32 1.32 1.32h3.32l1.758.68zm0 0"/>
    <path d="M2.398 7h11.204c.238 0 .398-.16.398-.398 0-.243-.16-.403-.398-.403H2.398C2.16 6.2 2 6.36 2 6.602c0 .238.16.398.398.398zm0 0M2.398 8.602h10.403c.238 0 .398-.16.398-.403 0-.238-.16-.398-.398-.398H2.398C2.16 7.8 2 7.96 2 8.199c0 .242.16.403.398.403zm0 0M12.398 9.8c0-.241-.16-.402-.398-.402H2.398c-.238 0-.398.16-.398.403 0 .238.16.398.398.398H12c.238 0 .398-.16.398-.398zm0 0"/>
</svg>
